X:220
T: Ranger (The)
T: R\'ana\'i (An)
S: "Ceol Rince na hEireann" 1/209
Z: B.Black
L: 1/8
M: C|
R: hornpipe
K: D
dB|A2 FA DAFA|dcdf edcd|B2 GB EBGB|EGgf edcB|
A2 FA DAFA|dcdf edcd|Adag faec|d2 f2 d2 :|
fg|afdf afdf|(3agf (3bag afdf|gece gece|gfgb agfe|
defg agba|gfed cdBd|Abag fgec|d2 f2 d2 :|
